X: 1
T: Superfly
R: reel
S: https://thesession.org/tunes/9942
M: 4/4
L: 1/8
K: Bmin
|: Bff2 gfeg | f3g  fedf | e3f  edce |1,3 dBBA BAFA :|2,4 dBBA B2BA :|
|: Bcde f2Bc | defB g2Bc | defd agfa |1,3 gfeg fedc :|2,4 gfeg fedc :|
